icons/svg/skimap/piste_sled.svg

<?xml version="1.0" encoding="UTF-8" standalone="no"?>
<svg
   xmlns:dc="http://purl.org/dc/elements/1.1/"
   xmlns:cc="http://creativecommons.org/ns#"
   xmlns:rdf="http://www.w3.org/1999/02/22-rdf-syntax-ns#"
   xmlns:svg="http://www.w3.org/2000/svg"
   xmlns="http://www.w3.org/2000/svg"
   xmlns:sodipodi="http://sodipodi.sourceforge.net/DTD/sodipodi-0.dtd"
   xmlns:inkscape="http://www.inkscape.org/namespaces/inkscape"
   width="32"
   height="32"
   id="svg2"
   version="1.1"
   inkscape:version="0.48.4 r9939"
   sodipodi:docname="piste_skitour.svg">
  <defs
     id="defs13">
    <inkscape:path-effect
       effect="gears"
       id="path-effect3774"
       is_visible="true"
       teeth="6"
       phi="-1.2" />
    <inkscape:path-effect
       effect="bend_path"
       id="path-effect3772"
       is_visible="false"
       bendpath="m 95.790098,316.51174 c 144.429032,-206.42506 223.313032,-11.7428 339.548092,0"
       prop_scale="1.19"
       scale_y_rel="false"
       vertical="false"
       bendpath-nodetypes="cc" />
  </defs>
  <sodipodi:namedview
     pagecolor="#ffffff"
     bordercolor="#666666"
     borderopacity="1"
     objecttolerance="10"
     gridtolerance="10"
     guidetolerance="10"
     inkscape:pageopacity="0"
     inkscape:pageshadow="2"
     inkscape:window-width="1680"
     inkscape:window-height="1021"
     id="namedview11"
     showgrid="false"
     inkscape:zoom="9.2070175"
     inkscape:cx="8.9721446"
     inkscape:cy="17.283295"
     inkscape:window-x="0"
     inkscape:window-y="0"
     inkscape:window-maximized="1"
     inkscape:current-layer="svg2"
     inkscape:snap-object-midpoints="true"
     inkscape:snap-page="true" />
  <metadata
     id="metadata2975">image/svg+xmlen<rdf:RDF>
  <cc:Work
     rdf:about="">
    <dc:format>image/svg+xml</dc:format>
    <dc:type
       rdf:resource="http://purl.org/dc/dcmitype/StillImage" />
    <dc:title></dc:title>
  </cc:Work>
</rdf:RDF>
</metadata>
  <g
     transform="matrix(0.0551864,0,0,0.0551864,0,-0.0555723)"
     id="g1327">
    <path
       inkscape:connector-curvature="0"
       d="M 66.275,1.768 C 24.94,1.768 1.704,23.139 1.704,66.804 l 0,450.123 c 0,40.844 20.895,62.229 62.192,62.229 l 452.024,0 c 41.307,0 62.229,-20.315 62.229,-62.229 l 0,-450.123 c 0,-42.601 -20.922,-65.036 -63.521,-65.036 -0.004,0 -448.495,-0.143 -448.353,0 z"
       style="fill:#111111;stroke:#eeeeee;stroke-width:3.40799999"
       id="path1329" />
  </g>
  <path
     style="fill:none;stroke:#ffffff;stroke-width:1.45168531000000001;stroke-linejoin:round;stroke-miterlimit:10;stroke-opacity:1;stroke-dasharray:none"
     inkscape:connector-curvature="0"
     stroke-miterlimit="10"
     d="M 8.3354408,20.388489 H 21.898506 c 0.713675,0 1.29172,-0.574363 1.29172,-1.283495 0,-0.23167 -0.06199,-0.449221 -0.170507,-0.637254"
     id="path3" />
  <path
     style="fill:none;stroke:#ffffff;stroke-width:1.45168531000000001;stroke-linecap:round;stroke-linejoin:round;stroke-miterlimit:10;stroke-opacity:1"
     inkscape:connector-curvature="0"
     stroke-miterlimit="10"
     d="m 10.123827,20.388489 c 0.562545,0 1.788388,-1.565863 1.788388,-2.566987"
     id="path5" />
  <path
     style="fill:none;stroke:#ffffff;stroke-width:1.45168531000000001;stroke-linecap:round;stroke-linejoin:round;stroke-miterlimit:10;stroke-opacity:1"
     inkscape:connector-curvature="0"
     stroke-miterlimit="10"
     d="M 20.855441,20.388489 C 18.984383,19.658823 18.470925,17.821502 18.470925,17.821502"
     id="path7" />
  <path
     style="color:#000000;fill:#ffffff;fill-opacity:1;fill-rule:nonzero;stroke:none;marker:none;visibility:visible;display:inline;overflow:visible;enable-background:accumulate"
     inkscape:connector-curvature="0"
     d="m 22.663204,12.687527 c -0.635527,0 -0.999146,0.198941 -1.727677,1.23857 -0.610983,1.098671 -1.485477,1.328417 -1.485477,1.328417 -0.18278,0 -1.832952,0 -2.152008,0 -1.077294,-0.329858 -1.296887,-1.162204 -1.936934,-2.737693 -0.412705,-1.015243 -0.942311,-1.754536 -2.00798,-1.754536 -1.396995,0 -3.4928102,0 -3.4928102,0 -0.92681,0 -1.487417,0.560246 -1.487417,1.210336 0,0 2.0738572,0.07252 0.958457,2.353285 -0.978479,2.000967 0.198925,3.037387 0.9720172,3.495596 h 9.751845 c 0,0 1.143173,-0.424837 1.605609,-1.477943 0.317763,-0.723891 0.786011,-1.941286 0.970083,-2.317348 0.05877,0.263758 0.294512,0.460773 0.578043,0.460773 0.327451,0 0.62713,-0.263116 0.62713,-0.58848 0,-0.775873 -0.518624,-1.210977 -1.172881,-1.210977 z"
     id="path9" />
</svg>

<svg width="32" height="32" viewBox="0 0 32 32" fill="none" xmlns="http://www.w3.org/2000/svg">
<g clip-path="url(#clip0)">
<path d="M3.65748 0.0419596C1.37635 0.0419596 0.0940399 1.22135 0.0940399 3.63106V28.4717C0.0940399 30.7258 1.24716 31.9059 3.52619 31.9059H28.4718C30.7514 31.9059 31.906 30.7848 31.906 28.4717V3.63106C31.906 1.28007 30.7514 0.0419596 28.4005 0.0419596C28.4002 0.0419596 3.64964 0.0340679 3.65748 0.0419596V0.0419596Z" fill="#111111" stroke="#EEEEEE" stroke-width="0.188075"/>
<path d="M8.33543 20.3885H21.8985C22.6122 20.3885 23.1902 19.8142 23.1902 19.105C23.1902 18.8734 23.1282 18.6558 23.0197 18.4678" stroke="white" stroke-width="1.45169" stroke-miterlimit="10" stroke-linejoin="round"/>
<path d="M10.1238 20.3885C10.6864 20.3885 11.9122 18.8227 11.9122 17.8215" stroke="white" stroke-width="1.45169" stroke-miterlimit="10" stroke-linecap="round" stroke-linejoin="round"/>
<path d="M20.8554 20.3885C18.9844 19.6589 18.4709 17.8215 18.4709 17.8215" stroke="white" stroke-width="1.45169" stroke-miterlimit="10" stroke-linecap="round" stroke-linejoin="round"/>
<path d="M22.6632 12.6876C22.0277 12.6876 21.6641 12.8865 20.9355 13.9261C20.3245 15.0248 19.45 15.2546 19.45 15.2546C19.2673 15.2546 17.6171 15.2546 17.298 15.2546C16.2207 14.9247 16.0011 14.0924 15.3611 12.5169C14.9484 11.5016 14.4188 10.7623 13.3531 10.7623C11.9561 10.7623 9.86031 10.7623 9.86031 10.7623C8.9335 10.7623 8.37289 11.3226 8.37289 11.9727C8.37289 11.9727 10.4468 12.0452 9.33135 14.3259C8.35287 16.3269 9.53028 17.3633 10.3034 17.8215H20.0552C20.0552 17.8215 21.1984 17.3967 21.6608 16.3436C21.9786 15.6197 22.4468 14.4023 22.6309 14.0263C22.6897 14.29 22.9254 14.487 23.2089 14.487C23.5364 14.487 23.8361 14.2239 23.8361 13.8985C23.8361 13.1227 23.3175 12.6876 22.6632 12.6876Z" fill="white"/>
</g>
<defs>
<clipPath id="clip0">
<path d="M0 0H32V32H0V0Z" fill="white"/>
</clipPath>
</defs>
</svg>
